examples/themes/img/example-0-image.svg

<?xml version="1.0" encoding="UTF-8" standalone="no"?>
<!DOCTYPE svg PUBLIC "-//W3C//DTD SVG 1.1//EN" "http://www.w3.org/Graphics/SVG/1.1/DTD/svg11.dtd">
<svg width="100%" height="100%" viewBox="0 0 500 500" version="1.1" xmlns="http://www.w3.org/2000/svg" xmlns:xlink="http://www.w3.org/1999/xlink" xml:space="preserve" xmlns:serif="http://www.serif.com/" style="fill-rule:evenodd;clip-rule:evenodd;stroke-miterlimit:10;">
    <g>
        <circle cx="250" cy="250" r="52" style="fill:#fff;"/>
        <path d="M206.875,220.951C216.224,207.108 232.057,198 250,198C266.961,198 282.037,206.138 291.53,218.719C293.185,221.817 294.544,225.064 295.6,228.4C298.1,236.7 298.9,245.8 296.9,254.4C295,262.6 290.7,270.1 284.7,275.9C278.6,281.8 270.9,285.8 262.6,287.3C254,288.9 245.1,287.9 237.4,283.6C230.1,279.5 224.4,272.8 221.6,264.9C218.7,256.7 218.8,247.4 222.9,239.7C226.9,232.3 234.2,227 242.5,225.5C251,224 259.8,226.8 265.2,233.9C270.4,240.7 271.6,250.6 266.5,257.8C261.6,264.7 251.4,267.8 244.1,262.9C236.9,258.1 235,246.7 242.7,241.5C246.2,239.1 251.2,238.7 254.7,241.4C258.1,244 259.6,249.1 257,252.8C254.6,256.4 248.9,257.4 246.2,253.6C244.9,251.9 244.7,249.5 245.8,247.7C246.9,245.9 249.2,244.9 251.2,245.8C253.1,246.6 254.3,249.2 253,251.1C251.7,252.9 248.5,252.7 248.2,250.3C247.958,248.482 249.588,247.913 250.688,248.258C249.596,247.712 248.101,248.416 247.7,249.7C247.2,251.3 248.4,252.9 250,253.2C253.9,254 255.1,248.9 252.8,246.6C250.3,244.1 246.3,245.3 244.7,248.2C243.1,251.2 244.4,254.8 247.2,256.7C250,258.5 253.6,258.1 256.2,256.1C261.9,251.7 260.1,243.3 254.5,239.9C248.6,236.3 241.3,238.9 237.6,244.3C233.7,249.9 234.8,257.2 238.9,262.4C242.9,267.4 249.5,269.9 255.9,268.8C262.3,267.7 268,263.3 271.1,257.6C274.2,251.8 274.5,245 272.2,238.8C269.9,232.8 265.4,227.7 259.8,224.5C254.2,221.3 247.6,220.2 241.3,221.3C234.9,222.5 228.7,225.8 224.1,230.4C219.6,234.8 216.2,240.5 214.6,246.6C212.9,252.9 213.1,259.6 215.1,265.8C217,272.1 220.5,277.9 225.1,282.6C229.5,287.2 234.9,290.8 240.8,293.2C246.7,295.5 253.2,296.5 259.6,296.1C266.3,295.7 272.7,293.6 278.7,290.5C283.663,287.933 288.114,284.634 291.989,280.664C282.526,293.595 267.237,302 250,302C233.937,302 219.565,294.701 210.026,283.244L210,283.2C205.6,275.8 203,267.4 202.5,258.8C202,250.1 203.8,241.4 208.1,233.8C212.2,226.6 218.4,220.6 225.8,216.7C233.4,212.7 242.5,210.8 251,212.1C259.4,213.3 267.2,217.6 272.7,224.1C278.2,230.6 281.2,239.2 281,247.8C280.7,256.3 276.4,264.4 269.4,269.3C262.5,274.3 253,276.3 244.9,273.1C236.9,270 231.3,262.4 230.7,253.8C230.1,245.1 235.7,236.9 244.3,234.8C253,232.7 262.1,238.2 262.8,247.4C263.1,251.8 261.2,255.9 257.5,258.3C253.9,260.6 249,260.7 245.6,258C242.3,255.3 241.1,250.1 243.7,246.6C246.3,243.2 252,242.4 254.5,246.3C255.7,248.1 255.8,250.5 254.5,252.2C253.2,253.9 250.8,254.7 248.9,253.6C247.1,252.5 246.3,249.8 247.9,248.2C249.4,246.7 252.7,247.4 252.4,249.9C252.1,252.6 248,251.7 249.1,249.6C249.215,249.417 249.387,249.276 249.584,249.18C249.727,249.003 249.932,248.977 250.134,249.037C250.342,249.023 250.547,249.054 250.721,249.134C249.895,247.939 247.671,249.342 248.5,251C249.4,252.7 251.7,252 252.3,250.5C252.9,248.9 251.6,247.2 250.1,246.9C246.2,246.1 245,251.3 247.4,253.7C250,256.2 254.1,254.7 255.5,251.7C257,248.6 255.3,245 252.6,243.3C246.2,239.5 239.1,246.6 240.5,253.3C241.9,260.1 249.5,263.8 255.8,261.3C262.1,258.8 265.8,252.3 264.8,245.6C263.7,239.1 258.4,233.6 252.2,231.9C245.7,230.1 238.7,232.3 233.8,236.8C228.9,241.2 226.3,247.6 226.5,254.1C226.8,260.7 230.1,267.2 234.9,271.7C239.6,276.1 245.8,278.9 252.2,279.3C258.9,279.8 265.6,277.6 271.2,273.9C276.6,270.3 281,265.2 283.7,259.3C286.4,253.4 287.5,246.7 286.5,240.2C285.6,233.5 282.7,227.1 278.8,221.7C274.9,216.5 270,212.2 264.3,209.1C258.6,206 252.2,204.2 245.8,203.9C239,203.6 232.3,204.9 226.1,207.5C220,210 214.4,213.7 209.5,218.3C208.591,219.151 207.716,220.036 206.875,220.951ZM249.493,249.337C249.129,249.568 248.923,250.086 249.1,250.5C249.642,252.125 252.057,250.979 251.639,249.417C251.635,249.595 251.592,249.79 251.5,250C251.312,250.47 250.815,250.741 250.352,250.762C250.128,250.833 249.864,250.798 249.6,250.6C249.3,250.412 249.281,250.126 249.396,249.889C249.396,249.86 249.398,249.831 249.4,249.8C249.41,249.606 249.443,249.454 249.493,249.337ZM250.269,249.601C249.849,249.609 249.745,249.8 249.812,250.018L249.6,250.2C249.731,250.461 249.947,250.52 250.15,250.463C249.988,250.336 249.859,250.17 249.812,250.018L250.283,249.615C250.327,249.663 250.366,249.724 250.4,249.8L250.3,250.1C250.444,250.09 250.553,250.062 250.632,250.021C250.553,250.227 250.358,250.405 250.15,250.463C250.274,250.559 250.417,250.633 250.557,250.661C250.493,250.704 250.425,250.739 250.352,250.762C249.852,250.784 249.39,250.515 249.396,249.889C249.559,249.554 249.99,249.318 250.269,249.601Z" style="fill:#ff4757;fill-rule:nonzero;"/>
        <g>
            <circle cx="250" cy="250" r="3.2" style="fill:#ff4757;"/>
        </g>
        <circle cx="250" cy="250" r="52" style="fill:none;stroke:#fff;stroke-width:1px;"/>
    </g>
</svg>

<?xml version="1.0" encoding="utf-8"?>
<!-- Generator: Adobe Illustrator 21.0.2, SVG Export Plug-In . SVG Version: 6.00 Build 0)  -->
<svg version="1.1" id="Layer_1" xmlns="http://www.w3.org/2000/svg" xmlns:xlink="http://www.w3.org/1999/xlink" x="0px" y="0px"
	 width="500px" height="500px" viewBox="0 0 500 500" style="enable-background:new 0 0 500 500;" xml:space="preserve">
<g>
	<g>
		<defs>
			<circle id="SVGID_1_" cx="250" cy="250" r="52"/>
		</defs>
		<clipPath id="SVGID_2_">
			<use xlink:href="#SVGID_1_"  style="overflow:visible;"/>
		</clipPath>
		<circle style="clip-path:url(#SVGID_2_);fill:#FFFFFF;" cx="249.4" cy="249.9" r="79"/>
	</g>
	<g>
		<defs>
			<circle id="SVGID_4_" cx="250" cy="250" r="52"/>
		</defs>
		<clipPath id="SVGID_5_">
			<use xlink:href="#SVGID_4_"  style="overflow:visible;"/>
		</clipPath>
		<g style="clip-path:url(#SVGID_5_);">
			<path style="fill:#FF4757;" d="M249.6,250.2c0.4,0.8,1.6-0.3,0.8-0.8c-0.8-0.6-1.6,0.4-1.3,1.1c0.6,1.8,3.5,0.2,2.3-1.6
				c-1-1.5-3.2-0.8-3.7,0.8c-0.5,1.6,0.7,3.2,2.3,3.5c3.9,0.8,5.1-4.3,2.8-6.6c-2.5-2.5-6.5-1.3-8.1,1.6c-1.6,3-0.3,6.6,2.5,8.5
				c2.8,1.8,6.4,1.4,9-0.6c5.7-4.4,3.9-12.8-1.7-16.2c-5.9-3.6-13.2-1-16.9,4.4c-3.9,5.6-2.8,12.9,1.3,18.1c4,5,10.6,7.5,17,6.4
				c6.4-1.1,12.1-5.5,15.2-11.2c3.1-5.8,3.4-12.6,1.1-18.8c-2.3-6-6.8-11.1-12.4-14.3c-5.6-3.2-12.2-4.3-18.5-3.2
				c-6.4,1.2-12.6,4.5-17.2,9.1c-4.5,4.4-7.9,10.1-9.5,16.2c-1.7,6.3-1.5,13,0.5,19.2c1.9,6.3,5.4,12.1,10,16.8
				c4.4,4.6,9.8,8.2,15.7,10.6c5.9,2.3,12.4,3.3,18.8,2.9c6.7-0.4,13.1-2.5,19.1-5.6c5.8-3,10.9-7,15.2-11.9
				c4.3-4.7,7.6-10.2,10-16.1c1.2-2.8,2.1-5.8,2.7-8.8l17.8-0.8c-1.4,8.4-4.4,16.5-8.8,23.9c-4.3,7.2-9.9,13.5-16.5,18.7
				s-14.2,9.1-22.2,11.6c-8.4,2.5-17.3,3.6-26,2.6c-8.5-0.9-16.7-3.9-23.9-8.6c-7-4.6-12.8-10.7-17-17.9c-4.4-7.4-7-15.8-7.5-24.4
				c-0.5-8.7,1.3-17.4,5.6-25c4.1-7.2,10.3-13.2,17.7-17.1c7.6-4,16.7-5.9,25.2-4.6c8.4,1.2,16.2,5.5,21.7,12
				c5.5,6.5,8.5,15.1,8.3,23.7c-0.3,8.5-4.6,16.6-11.6,21.5c-6.9,5-16.4,7-24.5,3.8c-8-3.1-13.6-10.7-14.2-19.3
				c-0.6-8.7,5-16.9,13.6-19c8.7-2.1,17.8,3.4,18.5,12.6c0.3,4.4-1.6,8.5-5.3,10.9c-3.6,2.3-8.5,2.4-11.9-0.3
				c-3.3-2.7-4.5-7.9-1.9-11.4c2.6-3.4,8.3-4.2,10.8-0.3c1.2,1.8,1.3,4.2,0,5.9c-1.3,1.7-3.7,2.5-5.6,1.4c-1.8-1.1-2.6-3.8-1-5.4
				c1.5-1.5,4.8-0.8,4.5,1.7c-0.3,2.7-4.4,1.8-3.3-0.3c0.5-0.8,2.1-0.8,2.1,0.3c-0.1,1.9-2.4-0.3-0.9-0.3"/>
			<path style="fill:#FF4757;" d="M250.4,249.8c-0.4-0.9-1.6,0.3-0.8,0.8c0.8,0.6,1.6-0.3,1.3-1.1c-0.6-1.8-3.3-0.3-2.4,1.5
				c0.9,1.7,3.2,1,3.8-0.5c0.6-1.6-0.7-3.3-2.2-3.6c-3.9-0.8-5.1,4.4-2.7,6.8c2.6,2.5,6.7,1,8.1-2c1.5-3.1-0.2-6.7-2.9-8.4
				c-6.4-3.8-13.5,3.3-12.1,10c1.4,6.8,9,10.5,15.3,8s10-9,9-15.7c-1.1-6.5-6.4-12-12.6-13.7c-6.5-1.8-13.5,0.4-18.4,4.9
				c-4.9,4.4-7.5,10.8-7.3,17.3c0.3,6.6,3.6,13.1,8.4,17.6c4.7,4.4,10.9,7.2,17.3,7.6c6.7,0.5,13.4-1.7,19-5.4
				c5.4-3.6,9.8-8.7,12.5-14.6c2.7-5.9,3.8-12.6,2.8-19.1c-0.9-6.7-3.8-13.1-7.7-18.5c-3.9-5.2-8.8-9.5-14.5-12.6
				c-5.7-3.1-12.1-4.9-18.5-5.2c-6.8-0.3-13.5,1-19.7,3.6c-6.1,2.5-11.7,6.2-16.6,10.8c-4.7,4.4-8.5,9.7-11.4,15.6
				c-2.8,5.8-4.7,12.1-5.3,18.5l-16.6-6.4c0.8-4.1,1.8-8,3.3-11.9c2.9-7.8,7.4-15.1,12.9-21.3c5.5-6.3,12.3-11.5,19.7-15.3
				c7.6-3.9,15.9-6.4,24.4-7.2c8.7-0.8,17.5,0,25.8,3c7.9,2.9,15,7.6,20.8,13.7s10,13.5,12.5,21.4c2.5,8.3,3.3,17.4,1.3,26
				c-1.9,8.2-6.2,15.7-12.2,21.5c-6.1,5.9-13.8,9.9-22.1,11.4c-8.6,1.6-17.5,0.6-25.2-3.7c-7.3-4.1-13-10.8-15.8-18.7
				c-2.9-8.2-2.8-17.5,1.3-25.2c4-7.4,11.3-12.7,19.6-14.2c8.5-1.5,17.3,1.3,22.7,8.4c5.2,6.8,6.4,16.7,1.3,23.9
				c-4.9,6.9-15.1,10-22.4,5.1c-7.2-4.8-9.1-16.2-1.4-21.4c3.5-2.4,8.5-2.8,12-0.1c3.4,2.6,4.9,7.7,2.3,11.4
				c-2.4,3.6-8.1,4.6-10.8,0.8c-1.3-1.7-1.5-4.1-0.4-5.9c1.1-1.8,3.4-2.8,5.4-1.9c1.9,0.8,3.1,3.4,1.8,5.3c-1.3,1.8-4.5,1.6-4.8-0.8
				c-0.4-3,4.3-2.6,3.3-0.3c-0.4,1-2.2,1.1-2.1-0.2c0.1-1.9,2.4,0.2,0.9,0.3"/>
		</g>
	</g>
	<g>
		<defs>
			<circle id="SVGID_6_" cx="250" cy="250" r="52"/>
		</defs>
		<clipPath id="SVGID_7_">
			<use xlink:href="#SVGID_6_"  style="overflow:visible;"/>
		</clipPath>
		<circle style="clip-path:url(#SVGID_7_);fill:#FF4757;" cx="250" cy="250" r="3.2"/>
	</g>
</g>
<g>
	<defs>
		<circle id="SVGID_3_" cx="250" cy="250" r="52"/>
	</defs>
	<clipPath id="SVGID_8_">
		<use xlink:href="#SVGID_3_"  style="overflow:visible;"/>
	</clipPath>
	<use xlink:href="#SVGID_3_"  style="overflow:visible;fill:none;stroke:#FFFFFF;stroke-miterlimit:10;"/>
</g>
</svg>
